!!!!SEGMENT: pl-wtm--r-2293_troschel-wilhelm--o-wroccie-jasne-chwile-mlodosci.krn
!!!cenid: 18xx:2255
!!!COM: Troschel, Wilhelm
!!!COM-rismid: pe30024099
!!!CDT: 1823/08/23-1887/03/02
!!!CNT: Polish
!!!OTL: O wróćcie, jasne chwile młodości
!!!PDT:
!!!AGN:
!!!SMS-siglum: PL-Wtm
!!!SMS-shelfmark: R 2293
!!!SMS-shelfwork: W
!!!SMS-variant:
!!!SMS-altvar:
!!!NIFC-rismid: 1001113827
!!!system-decoration: s1{(s2,s3)}
!!!key:
**kern	**kern	**dynam	**kern	**text	**dynam
*part2	*part2	*part2	*part1	*part1	*part1
*staff3	*staff2	*	*staff1	*staff1	*
*Iempty	*Iforte	*	*Iempty	*	*
*	*I"Fortepian	*	*I"Śpiew	*	*
*	*I'pf	*	*I'V	*	*
*clefF4	*clefG2	*	*clefG2	*	*
*k[b-e-a-d-]	*k[b-e-a-d-]	*	*k[b-e-a-d-]	*	*
*f:	*f:	*	*f:	*	*
*M3/8	*M3/8	*	*M3/8	*	*
*>[A,B,C,C1,C,C2,D]	*>[A,B,C,C1,C,C2,D]	*	*>[A,B,C,C1,C,C2,D]	*	*
=1	=1	=1	=1	=1	=1
*	*^	*	*	*	*
*>A	*>A	*>A	*	*>A	*	*
!!LO:TX:t=P:problem:all\right:global
!	!	!	!	!LO:TX:a:Bi:t=Ofiarowane P. Ludwice Rywackiej\npierwszej Spiewaczce Opery Warszawskiej przez Wilhelma Troschel	!	!
!	!	!	!LO:DY:b:Bi:t=%s.:rj	!	!	!
16.A-\LL	16.f/LL	4c\	pp	4.r	.	.
32G\JJk	32g/JJk	.	.	.	.	.
8F\	8a-/	.	.	.	.	.
8r	8r	8ryy	.	.	.	.
=2	=2	=2	=2	=2	=2	=2
16.F\LL	16.a-/LL	4c\	.	4.r	.	.
32G\JJk	32g/JJk	.	.	.	.	.
8A-\	8f/	.	.	.	.	.
8r	8r	8ryy	.	.	.	.
*	*v	*v	*	*	*	*
=3	=3	=3	=3	=3	=3
!LO:TX:t=P:problem=w źródle poprawki i dopiski [uwzględnione w kodzie]	!	!	!	!	!
16.d-LL 16.BB-/	16.b-LL 16.f/	.	4.r	.	.
32d-JJk 32BB-/	32b-JJk 32f/	.	.	.	.
8cL 8BB-/	8ccL 8f/	.	.	.	.
8B-J 8BB-/	8dd-J 8f/	.	.	.	.
=4	=4	=4	=4	=4	=4
4c\	4cc 4en/	.	4.r	.	.
8r	8cc/	.	.	.	.
=5	=5	=5	=5	=5	=5
8CC/	16.ccLL 16.en/	.	4.r	.	.
.	32ggJJk 32b-/	.	.	.	.
8e-L 8c 8B-\	8aa-L 8cc/	.	.	.	.
8e-J 8c 8B-\	8ggJ 8b-/	.	.	.	.
=6	=6	=6	=6	=6	=6
16.cLL 16.F 16.FF/	16ffLL 16a-/	.	4.r	.	.
.	16ffJJ 16a-/	.	.	.	.
32d-JJk 32B- 32F 32BB-/	.	.	.	.	.
4c 4F 4FF/	4ff 4an/	.	.	.	.
=7	=7	=7	=7	=7	=7
!	!LO:TUP:a:problem=klamra łukowa	!	!	!	!
8B-L 8G 8C\	24ccLL 24en\	.	4.r	.	.
.	24dd-\	.	.	.	.
.	24cc\	.	.	.	.
8B- 8G 8C\	16bn 16e\	.	.	.	.
.	16cc 16e\	.	.	.	.
8B-J 8G 8C\	16dd- 16e\	.	.	.	.
.	16cc/JJ	.	.	.	.
!!LO:LB:g=original
=8	=8	=8	=8	=8	=8
16.CLL 16.FF/	16.a-LL 16.c/	.	4.r	.	.
32D-JJk 32FF/	32gJJk 32en 32B-/	.	.	.	.
4C 4FF/	4f 4c 4A-/	.	.	.	.
=9||	=9||	=9||	=9||	=9||	=9||
*>B	*>B	*	*>B	*	*
!	!	!	!LO:TX:a:Bi:t=Śpiew.:rj	!	!
!	!	!	!LO:TUP:a:problem=klamra łukowa	!	!
!	!	!LO:DY:b:Bi:t=%s.:rj	!	!	!LO:DY:b:rj
8F 8FF/	8r	pp	24cc\LL	O!	p
.	.	.	24dd-\	.	.
.	.	.	24cc\JJ	.	.
8r	8fL 8c 8A-/	.	8bn\	wróc-	.
8r	8fJ 8c 8A-/	.	8cc\	-cie	.
=10	=10	=10	=10	=10	=10
8F 8FF/	8r	.	4dd-\	ja-	.
8r	8fL 8c 8A-/	.	.	.	.
8r	8fJ 8c 8A-/	.	8cc\	-sne	.
=11	=11	=11	=11	=11	=11
8F 8FF/	8r	.	8cc\	chwi-	.
8r	8fL 8c 8A-/	.	8ff\	-le	.
8r	8fJ 8c 8A-/	.	8gg\	mło-	.
=12	=12	=12	=12	=12	=12
8F 8FF/	8r	.	4aa-\	-do-	.
8r	8fL 8c 8A-/	.	.	.	.
8r	8fJ 8c 8A-/	.	8ff\	-ści!	.
=13	=13	=13	=13	=13	=13
8BB- 8BBB-/	8r	.	8ff\	Bo	.
8r	8fL 8d- 8B-/	.	8gg-X^^>\	smu-	.
8r	8fJ 8d- 8B-/	.	8ff\	-tney	.
=14	=14	=14	=14	=14	=14
8BB- 8BBB-/	8r	.	4ff\	du-	.
8r	8fL 8d- 8B-/	.	.	.	.
8r	8fJ 8d- 8B-/	.	8dd-\	-szy	.
!!LO:LB:g=original
=15	=15	=15	=15	=15	=15
*^	*	*	*	*	*
4.F/	8BB-\L	8d-/L	.	(>8dd-\	dzi-	.
.	8C\	8c/	.	8cc\	-siay	.
.	8D-\J	8Bn/J	.	8bn\)	po-	.
=16	=16	=16	=16	=16	=16	=16
4.G/	4.En 4.C\	4.c/	.	4dd-\	-trze-	.
.	.	.	.	8cc\	-ba	.
*v	*v	*	*	*	*	*
=17	=17	=17	=17	=17	=17
!	!	!	!	!	!LO:DY:b:rj
!	!	!	!LO:TUP:a:problem=klamra łukowa	!	!
8F 8FF/	8r	.	24cc\LL	Tych	p
.	.	.	24dd-\	.	.
.	.	.	24cc\JJ	.	.
8r	8fL 8c 8A-/	.	8bn\L	pa-	.
8r	8fJ 8c 8A-/	.	8cc\J	-ła-	.
=18	=18	=18	=18	=18	=18
8F 8FF/	8r	.	4dd-\	-ją-	.
8r	8fL 8c 8A-/	.	.	.	.
8r	8fJ 8c 8A-/	.	8cc\	-cych	.
=19	=19	=19	=19	=19	=19
8F 8FF/	8r	.	(>8cc\	o-	.
8r	8gL 8en 8c 8B-/	.	8.aa-\	-bjęć	.
8r	8gJ 8e 8c 8B-/	.	.	.	.
.	.	.	16gg\)	Mi-	.
=20	=20	=20	=20	=20	=20
8F 8FF/	8r	.	4gg\	-ło-	.
8r	8fL 8c 8A-/	.	.	.	.
8r	8fJ 8c 8A-/	.	8ff\	-ści	.
=21	=21	=21	=21	=21	=21
8Dn 8DDn/	8r	.	8ff\	I	<
8r	8a-L 8f 8Bn/	.	8gg\	o-	.
8r	8a-J 8f 8B/	.	8aa-\	-gni-	[
!!LO:PB:g=original
=22	=22	=22	=22	=22	=22
8E- 8EE-/	8r	.	4aa-\	-ste-	.
8r	8a-L 8e- 8c/	.	.	.	.
8r	8a-J 8e- 8c/	.	8cc\	-go	.
=23	=23	=23	=23	=23	=23
!	!	!	!LO:TUP:a:problem=klamra łukowa	!	!
8E- 8EE-/	8r	.	24cc\LL	roz-	.
.	.	.	24ff\	.	.
.	.	.	24ee-\JJ	.	.
8r	8gL 8e- 8d- 8B-/	.	8ddn\L	-ko-	.
8r	8gJ 8e- 8d- 8B-/	.	8dd-X\J	-szy	.
=24	=24	=24	=24	=24	=24
8A- 8AA-/	8r	.	4dd-X\	Nie-	.
8r	8a-L 8e- 8c/	.	.	.	.
8r	8a-J 8e- 8c/	.	8cc\	-ba!	.
=25	=25	=25	=25	=25	=25
8C 8CC/	8r	.	8cc\	Bo	.
.	.	.	8qqee-/	.	.
8r	8gL 8en 8c 8B-/	.	8dd-\	tak	.
8r	8gJ 8e 8c 8B-/	.	8cc\	po-	.
=26	=26	=26	=26	=26	=26
8C 8CC/	8r	.	4gg\	-sę-	.
8r	8gL 8en 8c 8B-/	.	.	.	.
8r	8gJ 8e 8c 8B-/	.	8aa-\	-pnie,	.
=27	=27	=27	=27	=27	=27
8F 8FF/	8r	.	16gg\LL	tak	.
.	.	.	16ff\JJ	.	.
8r	8fL 8c 8A-/	.	8ee-\	nie-	.
8r	8fJ 8c 8A-/	.	8dd-\	-we-	.
=28	=28	=28	=28	=28	=28
8F 8FF/	8r	.	4dd-\	-so-	.
8r	8fL 8c 8A-/	.	.	.	.
8r	8fJ 8c 8A-/	.	8cc\	-ło	.
!!LO:LB:g=original
=29	=29	=29	=29	=29	=29
8C 8CC/	8r	.	8g/	W od-	.
.	.	.	8qb-/	.	.
8r	8gL 8en 8c 8B-/	.	8a-/	-lud-	.
8r	8gJ 8e 8c 8B-/	.	8g/	-nym	.
=30	=30	=30	=30	=30	=30
8En 8EEn/	8r	.	4cc\	ście-	.
8r	8gL 8c 8B-/	.	.	.	.
8r	8gJ 8c 8B-/	.	8cc\	-cie	.
=31	=31	=31	=31	=31	=31
8A-L 8AA-/	8ccL 8f 8c/	.	8cc\	sa-	.
8G 8GG/	8cc 8f 8c/	.	8b-\	-mo-	.
8FJ 8FF/	8ccJ 8f 8c/	.	8a-/	-tnie	.
=32	=32	=32	=32	=32	=32
4En 4EEn/	4cc 4g 4c/	.	4g/	żyć;	.
8r	8r	.	8r	.	.
=33	=33	=33	=33	=33	=33
8En 8EEn/	8r	.	8cc\	Gdy	.
.	.	.	8qqee-/	.	.
8r	8gL 8c 8B-/	.	8dd-\	smu-	.
8r	8gJ 8c 8B-/	.	8cc\	-tek	.
=34	=34	=34	=34	=34	=34
8C 8CC/	8r	.	4gg\	za-	.
8r	8b-L 8g 8en 8B-/	.	.	.	.
8r	8gJ 8e 8B-/	.	8aa-\	-ćmi	.
=35	=35	=35	=35	=35	=35
8F 8FF/	8r	.	16gg\LL	wy-	.
.	.	.	16ff\JJ	.	.
8r	8fL 8c 8A-/	.	8ee-\	-bla-	.
8r	8fJ 8c 8A-/	.	8dd-\	-dłe	.
!!LO:LB:g=original
=36	=36	=36	=36	=36	=36
8C 8CC/	8r	.	4dd-\	czo-	.
8r	8fL 8c 8A-/	.	.	.	.
8r	8fJ 8c 8A-/	.	8cc\	-ło	.
=37	=37	=37	=37	=37	=37
!	!	!LO:HP:a	!	!	!
8D-L 8DD-/	8fL 8A- 8F/	>	8ff^^>\	I	.
8D- 8DD-/	8f 8A- 8F/	.	8ff^^>\	mło-	.
8D-J 8DD-/	8fJ 8A- 8F/	]	8ff^^>\	-de	.
=38	=38	=38	=38	=38	=38
!	!LO:TX:b:Bi:t=rall.	!	!LO:TX:b:i:t=ralen	!	!
4.D- 4.DD-/	4.f 4.A- 4.F/	.	4ff\	ser-	.
.	.	.	8f/	-ce	.
=39	=39	=39	=39	=39	=39
8D-L 8DD-\	8A-<L 8F</	.	8a-/	prze-	.
!	!	!	!LO:TX:b:Bi:t=rall.	!	!
8D- 8DD-\	8A-< 8F</	.	8a-/	-sta-	.
8D-J 8DD-\	8B-<J 8F</	.	8b-/	-je	.
=40	=40	=40	=40	=40	=40
4C 4CC\	4c< 4G< 4En</	.	4cc\	bić!	.
!	!LO:TX:a:Bi:t=in Temp	!	!	!	!
8r;>	8ryy	.	8r;>	.	.
=41!|:	=41!|:	=41!|:	=41!|:	=41!|:	=41!|:
*>C	*>C	*	*>C	*	*
!	!	!LO:DY:b:rj	!	!	!LO:DY:b:rj
8E- 8EE-/	8r	f	8ee-\	o	f
8r	8e-L 8d- 8G/	.	8ff^^>\	wróć-	.
8r	8e-J 8d- 8G/	.	8ee-\	-cie	.
=42	=42	=42	=42	=42	=42
8AA- 8AAA-/	8r	.	4aa-\	zło-	.
8r	8fL 8c 8A-/	.	.	.	.
8r	8fJ 8c 8A-/	.	8a-/	-te	.
!!LO:PB:g=original
=43	=43	=43	=43	=43	=43
8E- 8EE-/	8r	.	(>16b-\LL	kwia-	.
.	.	.	16cc\JJ	.	.
8r	4e- 4d- 4B- 4G/	.	8dd-\	-ty	.
8r	.	.	8ddn\)	ma-	.
=44	=44	=44	=44	=44	=44
8A- 8AA-/	8r	.	4ff\	-rze-	.
8r	8fL 8dn 8Bn/	.	.	.	.
8r	8e-J 8c 8A-/	.	8ee-\	-nia!	.
=45	=45	=45	=45	=45	=45
.	.	.	8qqgg-X/	.	.
!LO:N:vis=4	!	!	!	!	!
8D- 8DD-/	8r	.	(>8ff\	Cza-	.
8r	8fL 8d- 8A-/	.	8een\	-ro-	.
8r	8fJ 8d- 8A-/	.	8ff\)	-wnym	.
=46	=46	=46	=46	=46	=46
!LO:N:vis=4	!	!	!	!	!
8C 8CC/	8r	.	4ff^^>\	wian-	.
8r	8e-L 8A-/	.	.	.	.
8r	8e-J 8A-/	.	8ee-\	-kiem	.
=47	=47	=47	=47	=47	=47
8BB- 8BBB-/	8r	.	(>8b-\	us-	.
8r	8e-L 8d- 8G/	.	8.ff\)	-Troj-	.
8r	8e-J 8d- 8G/	.	.	.	.
.	.	.	16ee-\	-cie	.
=48	=48	=48	=48	=48	=48
8AA- 8AAA-/	8r	.	4cc\	skroń;	.
8r	8e-L 8c 8A-/	.	.	.	.
8r	8e-J 8c 8A-/	.	8r	.	.
=49	=49	=49	=49	=49	=49
8C 8CC/	8r	.	8cc\	Niech	.
8r	8gL 8en 8B-/	.	8dd-\	pierś	.
8r	8gJ 8e 8B-/	.	8cc\	mą	.
!!LO:LB:g=original
=50	=50	=50	=50	=50	=50
8F 8FF/	8r	.	4gg\	wzru-	.
8r	8fL 8c 8A-/	.	.	.	.
8r	8fJ 8c 8A-/	.	8ff\	-szą	.
=51	=51	=51	=51	=51	=51
8C 8CC/	8r	.	8cc\	u-	.
8r	8gL 8en 8B-/	.	8.gg\	-czu-	.
8r	8gJ 8e 8B-/	.	.	.	.
.	.	.	16aa-\	-cia	.
=52	=52	=52	=52	=52	=52
8F 8FF/	8r	.	4gg\	thnie-	.
8r	8fL 8c 8A-/	.	.	.	.
8r	8fJ 8c 8A-/	.	8ff\	-nie,	.
=53	=53	=53	=53	=53	=53
4.BB- 4.BBB-/	4f 4c 4F/	.	(>8ff\	Du-	.
.	.	.	8ee-\	-szę	.
.	8f 8d- 8B- 8F/	.	8dd-\)	u-	.
=54	=54	=54	=54	=54	=54
4.C 4.CC/	4.f 4.c 4.A-/	.	4dd-\	-po-	.
.	.	.	8cc\	-i	.
=55	=55	=55	=55	=55	=55
!!LO:TX:a:Bi:t=1ma
*>C1	*>C1	*	*>C1	*	*
!	!	!LO:HP:a	!	!	!
4.D- 4.DD-/	8B-<L 8F</	>	8b-^^>/	nie-	.
.	8A-< 8F</	.	8a-^^>/	-bian-	.
.	8B-<J 8F</	]	8b-^^>/	-ska	.
=56	=56	=56	=56	=56	=56
4.C 4.CC\	4.c< 4.G< 4.En</	.	4.cc^^>\	woń	.
!!LO:LB:g=original
=57:|!	=57:|!	=57:|!	=57:|!	=57:|!	=57:|!
!!LO:TX:a:Bi:t=2da
*>C2	*>C2	*	*>C2	*	*
4.C 4.CC/	4.en 4.c 4.B- 4.G/	.	8cc\	nie-	.
.	.	.	8qee-/	.	.
.	.	.	8.dd-\	-biań-	.
.	.	.	16cc\	-ska	.
=58	=58	=58	=58	=58	=58
4F 4FF/	4f 4c 4A-/	.	4f/	woń.	.
8r	8c/	.	8r	.	.
=59||	=59||	=59||	=59||	=59||	=59||
*	*^	*	*	*	*
*>D	*>D	*>D	*	*>D	*	*
!	!	!	!LO:DY:b=2:rj	!	!	!
16.A-\LL	(>16.f/LL	4.c\	p	4.r	.	.
32G\JJk	32g/JJk	.	.	.	.	.
8F\	8a-/	.	.	.	.	.
8r	8r	.	.	.	.	.
=60	=60	=60	=60	=60	=60	=60
16.F\LL	16.a-/LL)	4c\	.	4.r	.	.
32G\JJk	32g/JJk	.	.	.	.	.
8A-\	8f/	.	.	.	.	.
8r	8r	8ryy	.	.	.	.
*	*v	*v	*	*	*	*
=61	=61	=61	=61	=61	=61
16.BB-/LL	16.dd-LL 16.b- 16.f/	.	4.r	.	.
32BB-/JJk	32dd-JJk 32b- 32f/	.	.	.	.
8BB-/L	8ee-L 8b- 8f/	.	.	.	.
8BB-/J	8dd-J 8b- 8f/	.	.	.	.
=62	=62	=62	=62	=62	=62
.	(>4qqdd-/	.	.	.	.
4C/	4cc 4g 4en/	.	4.r	.	.
!	!	!LO:DY:b=2	!	!	!
8r	8cc/	pp	.	.	.
=63	=63	=63	=63	=63	=63
!LO:N:vis=4	!	!	!	!	!
8CC/	16ccLL 16en/	.	4.r	.	.
.	16ggJJ 16b-/	.	.	.	.
8cL 8B- 8G 8En/	8aa-L 8cc/	.	.	.	.
8cJ 8B- 8G 8E/	8ggJ 8b-/)	.	.	.	.
=64	=64	=64	=64	=64	=64
16.FLL 16.FF/	16.ffLL 16.a-/	.	4.r	.	.
32FJJk 32BB-/	32dd-JJk 32b-/	.	.	.	.
4F 4FF/	4cc 4a-/	.	.	.	.
=65	=65	=65	=65	=65	=65
!	!	!LO:DY:b=2:Bi:t=%s.	!	!	!
16.C\LL	16.c/LL	ppp	4.r	.	.
32D-\JJk	32d-/JJk	.	.	.	.
8C\L	8c/L	.	.	.	.
8C\J	8c/J	.	.	.	.
=66	=66	=66	=66	=66	=66
16.AA-LL 16.AAA-\	16.A-</LL	.	4.r	.	.
32GGJJk 32GGG\	32G</JJk	.	.	.	.
8FF 8FFF\	8F</	.	.	.	.
8r	8r	.	.	.	.
==	==	==	==	==	==
*-	*-	*-	*-	*-	*-
!!title: @{OTL};
!!!RDF**kern: > = above
!!!RDF**kern: < = below
!!!RDF**kern: | = vertical stroke
!!!RDF**kern: N = linked
!!!RDF**kern: i = editorial accidental
!!!EED: Wojciech Jakubiak-Danek
!!!EST: 2021-06-07
!!!URL-scan: http://repozytorium.nifc.pl/skany/pl-wtm-nut--r2293
!!!ONB-nifc: UWAGA: na ostatniej stronie niezwiązany z utworem zapis nutowy
!!!AIN: 2 empty
!!!ENC: Anastazja Marusiak
!!!END: 2021-05-25
